!!!COM: Haydn, Franz Joseph 
!!!OPR: Symphony in C Major 
!!!OTL: Allegro 
!!!OMV: 1 
!!!SCT: H I:2 
!!!SCA: Thematisch-bibliographisches Werkevererzeichnis (A. van Hoboken) 
!!!YOR: Breitkopf & Härtel Edition 
!!!EED: Frances Bennion 
!!!ENC: Frances Bennion 
!!!CDT: 1732/3/31/-1809/5/31/
!!!OCY: Österreich 
!!!YEC: Copyright (c) 1994, 2000 Center for Computer Assisted Research in the Humanities 
!!!YEM: Rights to all derivative editions reserved. 
!!!YEM: Refer to licensing agreement for further details. 
!!!YEN: United States of America 
**kern	**kern	**kern	**kern	**kern	**kern
*k[]	*k[]	*k[]	*k[]	*k[]	*k[]
*C:	*C:	*C:	*C:	*C:	*C:
*clefF	*clefF	*clefF	*clefF	*clefC3	*clefF4
*M2/2	*M2/2	*M2/2	*M2/2	*M2/2	*M2/2
*tb16	*tb16	*tb16	*tb16	*tb16	*tb16
=1	=1	=1	=1	=1	=1
2cc	2cc	2cc	2cc	2cc	2c
2c	2c	4.c	4.c	4.c	4.C
.	.	8d	8d	8d	8D
=2	=2	=2	=2	=2	=2
2e	2e	4.e	4.e	4.e	4.E
.	.	8f	8f	8f	8F
2g	2g	4.g	4.g	4.g	4.G
.	.	16a	16a	16a	16A
.	.	16b	16b	16b	16B
=3	=3	=3	=3	=3	=3
2cc	2cc	2cc	2cc	2cc	2c
2r	2r	8cc	2r	2r	2r
.	.	8dd	.	.	.
.	.	8ee	.	.	.
.	.	8ff	.	.	.
=4	=4	=4	=4	=4	=4
2r	2r	4gg	4r	2r	2r
.	.	4cc	4e	.	.
2dd	2g	4b	4d	2g	2G
.	.	4ff	4b	.	.
=5	=5	=5	=5	=5	=5
2cc	2cc	2ee	2cc	2cc	2c
2c	2c	4.c	4.c	4.c	4.C
.	.	8d	8d	8d	8D
=6	=6	=6	=6	=6	=6
2e	2e	4.e	4.e	4.e	4.E
.	.	8f	8f	8f	8F
2g	2g	4.g	4.g	4.g	4.G
.	.	16a	16a	16a	16A
.	.	16b	16b	16b	16B
=7	=7	=7	=7	=7	=7
2cc	2cc	2cc	2cc	4cc	4c
.	.	.	.	4cc	4c
2gg	2ee	4.gg	4.ee	4cc	4c
.	.	.	.	4cc	4c
.	.	16ff	16dd	.	.
.	.	16gg	16ee	.	.
=8	=8	=8	=8	=8	=8
1aa	1ff	2aa	2ff	4cc	4c
.	.	.	.	4cc	4c
.	.	4.ccc	4.aa	4cc	4c
.	.	.	.	4cc	4c
.	.	8a	8f	.	.
=9	=9	=9	=9	=9	=9
2gg	2ee	2g	2e	4cc	4c
.	.	.	.	4cc	4c
2r	2r	4.gg	4.ee	4cc	4c
.	.	.	.	4cc	4c
.	.	8cc	8e	.	.
=10	=10	=10	=10	=10	=10
2r	2r	4.cc	4.e	4g	4G
.	.	.	.	4g	4G
.	.	16b	16d	.	.
.	.	16cc	16e	.	.
2dd	2g	4dd	4f	4g	4G
.	.	4f	4d	4g	4G
=11	=11	=11	=11	=11	=11
2cc	2e	2e	2c	4c	4C
.	.	.	.	4cc	4c
2gg	2ee	4.gg	4.ee	4cc	4c
.	.	.	.	4cc	4c
.	.	16ff	16dd	.	.
.	.	16gg	16ee	.	.
=12	=12	=12	=12	=12	=12
1aa	1ff	2aa	2ff	4cc	4c
.	.	.	.	4cc	4c
.	.	4.ccc	4.aa	4cc	4c
.	.	.	.	4cc	4c
.	.	8a	8f	.	.
=13	=13	=13	=13	=13	=13
2gg	2ee	2g	2e	4cc	4c
.	.	.	.	4cc	4c
2r	2r	4.gg	4.ee	4cc	4c
.	.	.	.	4cc	4c
.	.	8cc	8e	.	.
=14	=14	=14	=14	=14	=14
2r	2r	4.cc	4.e	4g	4G
.	.	.	.	4g	4G
.	.	16b	16d	.	.
.	.	16cc	16e	.	.
2dd	2g	4dd	4f	4g	4G
.	.	4f	4B	4g	4G
=15	=15	=15	=15	=15	=15
2cc	2e	8e	[1c	4c	4C
.	.	8d	.	.	.
.	.	8e	.	4c	4C
.	.	8f	.	.	.
2r	2r	4.g	.	4e	4E
.	.	.	.	4e	4E
.	.	8c	.	.	.
=16	=16	=16	=16	=16	=16
2r	2r	4d	2c]	4f	4F
.	.	4e	.	4e	4E
2g	2g	4f	2B	4d	4D
.	.	8e	.	4g	4G
.	.	8d	.	.	.
=17	=17	=17	=17	=17	=17
4cc	4e	2c	2c	4c	4C
4cc	4e	.	.	4cc	4c
4cc	4e	2r	2r	4g	4G
4cc	4e	.	.	4e	4E
=18	=18	=18	=18	=18	=18
4ee	4cc	2c 2g 2cc 2ee	2c 2g 2cc 2ee	4c	4C
4ee	4cc	.	.	4cc	4c
4ee	4cc	2r	2r	4g	4G
4ee	4cc	.	.	4e	4E
=19	=19	=19	=19	=19	=19
2ee	2cc	2c 2g 2cc 2ee	2c 2ee 2g 2cc	2c	2C
2r	2r	2r	4.c	2r	2r
.	.	.	8d	.	.
=20	=20	=20	=20	=20	=20
1r	1r	2r	4.e	2r	2r
.	.	.	8f	.	.
.	.	8gg	4.g	2b	2B
.	.	8gg	.	.	.
.	.	8gg	.	.	.
.	.	8gg	16a	.	.
.	.	.	16b	.	.
=21	=21	=21	=21	=21	=21
1r	1r	4gg	2.cc	2a	2A
.	.	4ee	.	.	.
.	.	8ff	.	2dd	2d
.	.	8ff	.	.	.
.	.	8ff	4dd	.	.
.	.	8ff	.	.	.
=22	=22	=22	=22	=22	=22
1r	1r	4ff	2.b	2g	2G
.	.	4dd#	.	.	.
.	.	8ee	.	2cc	2c
.	.	8ee	.	.	.
.	.	8ee	4cc	.	.
.	.	8ee	.	.	.
=23	=23	=23	=23	=23	=23
1r	1r	4ee	2a	2f	2F
.	.	4dd	.	.	.
.	.	4aa	4cc	2f#	2F#
.	.	4cc	4a	.	.
=24	=24	=24	=24	=24	=24
1r	1r	2b	2g	2g	2G
.	.	4.gg	2r	2r	2r
.	.	16ff#	.	.	.
.	.	16ee	.	.	.
=25	=25	=25	=25	=25	=25
4r	4r	4dd	4r	4r	4r
4gg	4g	4d	4B	4G	4G
4gg	4g	4e	4c	4G	4G
4gg	4g	4f#	4A	4c	4G
=26	=26	=26	=26	=26	=26
2gg	2g	2g	2B	2B	2GG
2r	2r	4.gg	2r	2r	2r
.	.	16ff#	.	.	.
.	.	16ee	.	.	.
=27	=27	=27	=27	=27	=27
4r	4r	4dd	4r	4r	4r
4gg	4g	4d	4B	4G	4G
4gg	4g	4e	4c	4G	4G
4gg	4g	4f#	4A	4c	4G
=28	=28	=28	=28	=28	=28
2gg	2g	2g	2B	2B	2GG
2r	2r	4.bb	[2b	[2g	2G
.	.	8dd	.	.	.
=29	=29	=29	=29	=29	=29
1r	1r	4.cc	2b]	2g]	2E
.	.	16b	.	.	.
.	.	16cc	.	.	.
.	.	4.aa	[2a	[2d	2F#
.	.	8cc	.	.	.
=30	=30	=30	=30	=30	=30
2gg	2g	4.b	2a]	2d]	2G
.	.	16a	.	.	.
.	.	16b	.	.	.
2r	2r	4gg	4g	4e	4E
.	.	[4gg	[4b	4e	4E
=31	=31	=31	=31	=31	=31
2gg	2g	4gg]	4b]	4d	4D
.	.	2gg	2b	4d	4D
2r	2r	.	.	4c#	4C#
.	.	8ff#	4b	4c#	4C#
.	.	8gg	.	.	.
=32	=32	=32	=32	=32	=32
[1dd	[1dd	2d 2ff# 2a	2d 2ff# 2a	4d	4D
.	.	.	.	4dd	4d
.	.	2gg 2d 2b	2gg 2d 2b	4d	4D
.	.	.	.	4dd	4d
=33	=33	=33	=33	=33	=33
1dd]	1dd]	2cc 2aa 2d	2aa 2d 2cc	4d	4D
.	.	.	.	4dd	4d
.	.	2d 2a 2ff#	2a 2ff# 2d	4d	4D
.	.	.	.	4dd	4d
=34	=34	=34	=34	=34	=34
2dd	2g	4gg	4gg	2g	2G
.	.	8bb	8bb	.	.
.	.	8gg	8gg	.	.
2r	2r	4aa	4aa	4r	4r
.	.	8a	8a	4f#	4D
.	.	8cc	8cc	.	.
=35	=35	=35	=35	=35	=35
2dd	2g	4b	4b	2g	2G
.	.	8bb	8bb	.	.
.	.	8gg	8gg	.	.
2r	2r	4aa	4aa	4r	4r
.	.	8a	8a	4f#	4D
.	.	8cc	8cc	.	.
=36	=36	=36	=36	=36	=36
2dd	2g	4b	4b	2g	4G
.	.	8ddd	8ddd	.	4G
.	.	8bb	8bb	.	.
2r	2r	4ccc	4ccc	[2a	4A
.	.	4ee	[4ccc	.	4A
=37	=37	=37	=37	=37	=37
1r	1r	4dd	2ccc]	2a]	4F#
.	.	8ccc	.	.	4F#
.	.	8aa	.	.	.
.	.	4bb	[2bb	[2g	4G
.	.	4dd	.	.	4G
=38	=38	=38	=38	=38	=38
1r	1r	4cc	2bb]	2g]	4E
.	.	8bb	.	.	4E
.	.	8gg	.	.	.
.	.	4aa	[2aa	4f#	4F#
.	.	4cc	.	4f#	4F#
=39	=39	=39	=39	=39	=39
1r	1r	4b	4aa]	4g	4G
.	.	4gg	4gg	4b	4B
.	.	4ee	4ee	4cc	4c
.	.	4ccc	4ff#	4a	4A
=40	=40	=40	=40	=40	=40
2r	2r	16bb	4gg	4g	4G
.	.	16aa	.	.	.
.	.	4.gg	.	.	.
.	.	.	2g	4B	4BB
4.dd	4.dd	2aa	.	4c	4C
.	.	.	4f#	4d	4D
8dd	8dd	.	.	.	.
=41	=41	=41	=41	=41	=41
2dd	2g	2gg	2g	2G	2GG
2r	2r	4.dd	2r	2r	2r
.	.	8ee-	.	.	.
=42	=42	=42	=42	=42	=42
1r	1r	2dd	4r	4r	1r
.	.	.	4f#	4d	.
.	.	2r	4g	4e	.
.	.	.	4a	4f#	.
=43	=43	=43	=43	=43	=43
1r	1r	2r	2b-	2g	1r
.	.	4.dd	2r	2r	.
.	.	8ee-	.	.	.
=44	=44	=44	=44	=44	=44
1r	1r	2dd	4r	4r	1r
.	.	.	4f#	4d	.
.	.	2r	4g	4e	.
.	.	.	4a	4f#	.
=45	=45	=45	=45	=45	=45
1r	1r	4r	[1b-	[1g	4r
.	.	4b-	.	.	4G
.	.	4cc	.	.	4A
.	.	4dd	.	.	4B-
=46	=46	=46	=46	=46	=46
1r	1r	[1ee-	4b-]	4g]	[1c
.	.	.	4g	4e-	.
.	.	.	4a	4f	.
.	.	.	4b-	4g	.
=47	=47	=47	=47	=47	=47
1r	1r	4ee-]	[1a	[1f	4c]
.	.	4a	.	.	4F
.	.	4b-	.	.	4G
.	.	4cc	.	.	4A
=48	=48	=48	=48	=48	=48
1r	1r	[1dd	4a]	4f]	[1B-
.	.	.	4f	4d	.
.	.	.	4g	4e-	.
.	.	.	4a	4f	.
=49	=49	=49	=49	=49	=49
1r	1r	4dd]	[1g	[1e-	4B-]
.	.	4g	.	.	4E-
.	.	4a	.	.	4F
.	.	4b-	.	.	4G
=50	=50	=50	=50	=50	=50
1r	1r	[1cc	4g]	4e-]	[1A
.	.	.	4e-	4c	.
.	.	.	4f#	4d	.
.	.	.	4g	4e-	.
=51	=51	=51	=51	=51	=51
1r	1r	4cc]	4f#	[1d	4A]
.	.	4f#	4f#	.	4D
.	.	4g	4g	.	4E
.	.	4a	4a	.	4F#
=52	=52	=52	=52	=52	=52
1r	1r	1b-	1b-	1d]	4G
.	.	.	.	.	4B-
.	.	.	.	.	4G
.	.	.	.	.	4F
=53	=53	=53	=53	=53	=53
1r	1r	2.gg	2.b-	4e-	4E-
.	.	.	.	4d	4D
.	.	.	.	4c#	4C#
.	.	4b-	4g	4c#	4C#
=54	=54	=54	=54	=54	=54
[1dd	[1dd	4a	8f#	2d	4D
.	.	.	8d	.	.
.	.	4d	8d	.	4d
.	.	.	8d	.	.
.	.	2r	8d	2r	4A
.	.	.	8d	.	.
.	.	.	8d	.	4F#
.	.	.	8d	.	.
=55	=55	=55	=55	=55	=55
1dd_	1dd_	1ff#	8d	1a	4D
.	.	.	8d	.	.
.	.	.	8d	.	4d
.	.	.	8d	.	.
.	.	.	8d	.	4A
.	.	.	8d	.	.
.	.	.	8d	.	4F#
.	.	.	8d	.	.
=56	=56	=56	=56	=56	=56
1dd]	1dd]	1ccc	8d	1f#	4D
.	.	.	8d	.	.
.	.	.	8d	.	4d
.	.	.	8d	.	.
.	.	.	8d	.	4A
.	.	.	8d	.	.
.	.	.	8d	.	4F#
.	.	.	8d	.	.
=57	=57	=57	=57	=57	=57
2dd	2g	8bb	2d	2g	2G
.	.	8ddd	.	.	.
.	.	8ddd	.	.	.
.	.	8ddd	.	.	.
2r	2r	8ddd	4r	4r	4r
.	.	8ddd	.	.	.
.	.	8ddd	4gg	4b	4G
.	.	8ddd	.	.	.
=58	=58	=58	=58	=58	=58
2.r	2.r	8ddd	4.ff#	4.a	2D
.	.	8ddd	.	.	.
.	.	8ddd	.	.	.
.	.	8ddd	8gg	8b	.
.	.	8ddd	4aa	4cc	4r
.	.	8ddd	.	.	.
4dd	4dd	8ddd	4ccc	4f#	4D
.	.	8ddd	.	.	.
=59	=59	=59	=59	=59	=59
2gg	2g	8ddd	4bb	4g	2G
.	.	8ddd	.	.	.
.	.	8ddd	4gg	4B	.
.	.	8ddd	.	.	.
2r	2r	8ddd	4r	4r	4r
.	.	8ddd	.	.	.
.	.	8ddd	4gg	4b	4G
.	.	8ddd	.	.	.
=60	=60	=60	=60	=60	=60
2.r	2.r	8ddd	4.ff#	4.a	2D
.	.	8ddd	.	.	.
.	.	8ddd	.	.	.
.	.	8ddd	8gg	8b	.
.	.	8ddd	4aa	4cc	4r
.	.	8ddd	.	.	.
4dd	4dd	8ddd	4ccc	4f#	4D
.	.	8ddd	.	.	.
=61	=61	=61	=61	=61	=61
2gg	2g	4ddd	4bb	2g	2G
.	.	4bb	4gg	.	.
2r	2r	4gg	4r	4r	4r
.	.	4dd	4dd	4b	4B
=62	=62	=62	=62	=62	=62
1r	1r	4ee	4ee	2cc	2c
.	.	4ccc	4ccc	.	.
.	.	4bb	4bb	4r	4r
.	.	4aa	4aa	8dd	8d
.	.	.	.	8cc	8c
=63	=63	=63	=63	=63	=63
1r	1r	4.gg	4.gg	4b	4B
.	.	.	.	4b	4B
.	.	8dd	8dd	.	.
.	.	2aa	2aa	4cc	4c
.	.	.	.	4dd	4d
=64	=64	=64	=64	=64	=64
1r	1r	4gg	4gg	2g	2G
.	.	4b	4g	.	.
.	.	4cc	4a	2r	2r
.	.	4dd	4b	.	.
=65	=65	=65	=65	=65	=65
1r	1r	4ee	4cc	1r	1r
.	.	4ff#	4dd	.	.
.	.	4gg	4ee	.	.
.	.	4aa	4ff#	.	.
=66	=66	=66	=66	=66	=66
1r	1r	4bb	4gg	2.r	2.r
.	.	4ccc	4aa	.	.
.	.	4ddd	4bb	.	.
.	.	4B	4B	4B	4BB
=67	=67	=67	=67	=67	=67
1r	1r	2c	2c	2c	2C
.	.	2d	2d	2d	2D
=68	=68	=68	=68	=68	=68
2gg	2g	2G	2G	4G	4GG
.	.	.	.	4g	4G
4.gg	4.g	2gg 2b	2b 2gg	4d	4D
.	.	.	.	4B	4BB
8gg	8g	.	.	.	.
=69	=69	=69	=69	=69	=69
2gg	2g	2b 2gg	2gg 2b	2G	2GG
2r	2r	2r	2r	2r	2r
=70	=70	=70	=70	=70	=70
2gg	2g	2g	2g	2g	2G
2r	2r	4.G	4.G	4.G	4.GG
.	.	8A	8A	8A	8AA
=71	=71	=71	=71	=71	=71
1r	1r	4.B	4.B	4.B	4.BB
.	.	8c	8c	8c	8C
.	.	4.d	4.d	4.d	4.D
.	.	16e	16e	16e	16E
.	.	16f#	16f#	16f#	16F#
=72	=72	=72	=72	=72	=72
1r	1r	2g	2g	2g	2G
.	.	8g	2r	2r	2r
.	.	8a	.	.	.
.	.	8b	.	.	.
.	.	8cc	.	.	.
=73	=73	=73	=73	=73	=73
2r	2r	4dd	4r	2r	2r
.	.	4g	4B	.	.
2dd	2dd	4f#	4A	2d	2D
.	.	4cc	4f#	.	.
=74	=74	=74	=74	=74	=74
2g	2g	2b	2g	2G	2GG
2r	2r	[2ddd	[2bb	4.G	4.G
.	.	.	.	8A	8A
=75	=75	=75	=75	=75	=75
1r	1r	2ddd]	2bb]	4.B	4.B
.	.	.	.	8c	8c
.	.	2ccc	2aa	4.d	4.d
.	.	.	.	16e	16e
.	.	.	.	16f#	16f#
=76	=76	=76	=76	=76	=76
1r	1r	4bb	4gg	2g	2g
.	.	4dd	4b	.	.
.	.	[2bb	[2gg	4.e	4.E
.	.	.	.	8f#	8F#
=77	=77	=77	=77	=77	=77
1r	1r	2bb]	2gg]	4.g	4.G
.	.	.	.	8a	8A
.	.	2aa	2ff#	4.b	4.B
.	.	.	.	16cc#	16c#
.	.	.	.	16dd#	16d#
=78	=78	=78	=78	=78	=78
1r	1r	4gg	4ee	2ee	2e
.	.	4b	4g	.	.
.	.	[2gg	[2ee	4.c	4.C
.	.	.	.	8d	8D
=79	=79	=79	=79	=79	=79
1r	1r	2gg]	2ee]	4.e	4.E
.	.	.	.	8f	8F
.	.	2ff	2dd	4.g	4.G
.	.	.	.	16a	16A
.	.	.	.	16b	16B
=80	=80	=80	=80	=80	=80
1r	1r	4ee	4cc	2cc	2c
.	.	4g	4e	.	.
.	.	4.ccc	4.ee	2r	2r
.	.	8bb	8dd	.	.
=81	=81	=81	=81	=81	=81
1r	1r	4.aa	4.cc	2r	2r
.	.	8gg	8b	.	.
.	.	4.ff#	4.a	2A	2AA
.	.	8ee	8g	.	.
=82	=82	=82	=82	=82	=82
1r	1r	2dd#	2f#	2B	4BB
.	.	.	.	.	4BB
.	.	4.bb	2dd#	2f#	4BB
.	.	.	.	.	4BB
.	.	16aa	.	.	.
.	.	16bb	.	.	.
=83	=83	=83	=83	=83	=83
1r	1r	2ccc	4.ee	2g	4BB
.	.	.	.	.	4BB
.	.	.	16dd#	.	.
.	.	.	16ee	.	.
.	.	4.aa	2ff#	2cc	4BB
.	.	.	.	.	4BB
.	.	16gg	.	.	.
.	.	16aa	.	.	.
=84	=84	=84	=84	=84	=84
1r	1r	2bb	4.dd#	2f#	4BB
.	.	.	.	.	4BB
.	.	.	16cc#	.	.
.	.	.	16dd#	.	.
.	.	4.gg	2ee	2b	4BB
.	.	.	.	.	4BB
.	.	16ff#	.	.	.
.	.	16gg	.	.	.
=85	=85	=85	=85	=85	=85
1r	1r	2aa	4.cc#	2e	4BB
.	.	.	.	.	4BB
.	.	.	16b	.	.
.	.	.	16cc#	.	.
.	.	4.ff#	2dd#	2a	4BB
.	.	.	.	.	4BB
.	.	16ee	.	.	.
.	.	16ff#	.	.	.
=86	=86	=86	=86	=86	=86
1r	1r	2gg#	4ee	4e	4E
.	.	.	4dd	4e	4E
.	.	[2aa	4cc	4e	4E
.	.	.	4dd	4e	4E
=87	=87	=87	=87	=87	=87
1r	1r	4aa]	2.b	4e	4E
.	.	4ff#	.	4e	4E
.	.	[2gg	.	4e	4E
.	.	.	4ee	4e	4E
=88	=88	=88	=88	=88	=88
1r	1r	4gg]	2cc#	4A	4AA
.	.	4aa	.	4A	4AA
.	.	4ff	[2dd	4A	4AA
.	.	4gg	.	4A	4AA
=89	=89	=89	=89	=89	=89
1r	1r	2.ee	4dd]	4A	4AA
.	.	.	4b	4A	4AA
.	.	.	[2cc	4A	4AA
.	.	4aa	.	4A	4AA
=90	=90	=90	=90	=90	=90
1r	1r	2ff#	4cc]	4d	4D
.	.	.	4dd	4d	4D
.	.	[2gg	4b	4d	4D
.	.	.	4cc	4d	4D
=91	=91	=91	=91	=91	=91
1r	1r	4gg]	2.a	4d	4D
.	.	4ee	.	4d	4D
.	.	[2ff	.	4d	4D
.	.	.	4dd	4d	4D
=92	=92	=92	=92	=92	=92
1r	1r	4ff]	2b	4G	4GG
.	.	4gg	.	4G	4GG
.	.	4ee	[2cc	4G	4GG
.	.	4ff	.	4G	4GG
=93	=93	=93	=93	=93	=93
1r	1r	2.dd	4cc]	4G	4GG
.	.	.	4a	4G	4GG
.	.	.	2b	4G	4GG
.	.	4gg	.	4G	4GG
=94	=94	=94	=94	=94	=94
2cc	2e	2ee	2cc	2c	2C
2r	2r	4.cc	2r	[2ee	[2c
.	.	8dd	.	.	.
=95	=95	=95	=95	=95	=95
2r	2r	4.ee	4r	2ee]	2c]
.	.	.	8gg	.	.
.	.	8ff	8aa	.	.
2dd	2g	4.gg	8gg	2dd	2B
.	.	.	8ff	.	.
.	.	.	8ee	.	.
.	.	16aa	8dd	.	.
.	.	16bb	.	.	.
=96	=96	=96	=96	=96	=96
2cc	2e	2ccc	2ee	4cc	4A
.	.	.	.	4c	4AA
2r	2r	4.a	2r	[2cc	[2A
.	.	8b	.	.	.
=97	=97	=97	=97	=97	=97
2r	2r	4.cc	4r	2cc]	2A]
.	.	.	8ee	.	.
.	.	8dd	8ff	.	.
2g	2g	4.ee	8ee	2b	2G
.	.	.	8dd	.	.
.	.	.	8cc	.	.
.	.	16ff	8b	.	.
.	.	16gg	.	.	.
=98	=98	=98	=98	=98	=98
2c	2c	2aa	2cc	4a	4F
.	.	.	.	4A	4FF
2r	2r	4.f	2r	[2a	[2F
.	.	8g	.	.	.
=99	=99	=99	=99	=99	=99
1r	1r	4.a	4r	2a]	2F]
.	.	.	8cc	.	.
.	.	8b	8dd	.	.
.	.	4.cc	8cc	2g	2E
.	.	.	8b	.	.
.	.	.	8a	.	.
.	.	16dd	8g	.	.
.	.	16ee	.	.	.
=100	=100	=100	=100	=100	=100
1r	1r	4ff	4a	2f	4D
.	.	2ff	2a	.	8d
.	.	.	.	.	8e
.	.	.	.	2r	8d
.	.	.	.	.	8c
.	.	4ff	4a	.	8B
.	.	.	.	.	8A
=101	=101	=101	=101	=101	=101
1ff	1g	4ddd	4ff	4b	2G
.	.	8ddd	2ff	2b	.
.	.	8ccc	.	.	.
.	.	8bb	.	.	4r
.	.	8aa	.	.	.
.	.	8gg	4ff	[4b	4G
.	.	8ff	.	.	.
=102	=102	=102	=102	=102	=102
2ee	2cc	4ee	4ee	4b]	4C
.	.	2ee	2ee	2b	8c
.	.	.	.	.	8d
2r	2r	.	.	.	8c
.	.	.	.	.	8B
.	.	4ee	[4ee	4b	8A
.	.	.	.	.	8G
=103	=103	=103	=103	=103	=103
1r	1r	4ccc	4ee]	4a	2F
.	.	8ccc	2ee	2a	.
.	.	8bb	.	.	.
.	.	8aa	.	.	4r
.	.	8gg	.	.	.
.	.	8ff	4ee	[4a	4F
.	.	8ee	.	.	.
=104	=104	=104	=104	=104	=104
1r	1r	4dd	4dd	4a]	4BB
.	.	2dd	2dd	2a	8B
.	.	.	.	.	8c
.	.	.	.	.	8B
.	.	.	.	.	8A
.	.	4dd	[4dd	4a	8G
.	.	.	.	.	8F
=105	=105	=105	=105	=105	=105
1r	1r	4bb	4dd]	4g	2E
.	.	8bb	2dd	2g	.
.	.	8aa	.	.	.
.	.	8gg	.	.	4r
.	.	8ff	.	.	.
.	.	8ee	4dd	[4g	4E
.	.	8dd	.	.	.
=106	=106	=106	=106	=106	=106
1r	1r	4cc	4cc	4g]	4AA
.	.	2cc	2cc	2g	8A
.	.	.	.	.	8B
.	.	.	.	.	8A
.	.	.	.	.	8G
.	.	4cc	[4cc	4g	8F#
.	.	.	.	.	8E
=107	=107	=107	=107	=107	=107
1r	1r	4aa	4cc]	4f#	2D
.	.	8aa	2cc	2f#	.
.	.	8gg	.	.	.
.	.	8ff#	.	.	4r
.	.	8ee	.	.	.
.	.	8dd	4cc	4f#	4D
.	.	8cc	.	.	.
=108	=108	=108	=108	=108	=108
2gg	2g	2b	2b	4g	4GG
.	.	.	.	4g	4G
2r	2r	4.gg	4.e	4g	4G
.	.	.	.	4g	4G
.	.	16ff#	16d	.	.
.	.	16ee	16c	.	.
=109	=109	=109	=109	=109	=109
2gg	2g	4dd	4B	4g	4G
.	.	4d	4B	4g	4G
2r	2r	4e	4c	4g	4G
.	.	4f#	4A	4g	4G
=110	=110	=110	=110	=110	=110
2gg	2g	2g	2B	4g	4G
.	.	.	.	4g	4G
2r	2r	4.gg	4.e	4g	4G
.	.	.	.	4g	4G
.	.	16ff#	16d	.	.
.	.	16ee	16c	.	.
=111	=111	=111	=111	=111	=111
2gg	2g	4dd	4B	4g	4G
.	.	4d	4B	4g	4G
2r	2r	4e	4c	4g	4G
.	.	4f#	4A	4g	4G
=112	=112	=112	=112	=112	=112
2gg	2g	2g	2G	4g	4G
.	.	.	.	8g	8G
.	.	.	.	8a	8A
2r	2r	2r	2r	8g	8G
.	.	.	.	8f	8F
.	.	.	.	8e	8E
.	.	.	.	8d	8D
=113	=113	=113	=113	=113	=113
1r	1r	2cc	1r	4c	4C
.	.	.	.	4cc	4c
.	.	4.ee	.	4cc	4c
.	.	.	.	4cc	4c
.	.	8ff	.	.	.
=114	=114	=114	=114	=114	=114
1r	1r	2gg	2g	4b	4B
.	.	.	.	4b	4B
.	.	4r	4.a	4b	4B
.	.	[4gg	.	4b	4B
.	.	.	8b	.	.
=115	=115	=115	=115	=115	=115
1r	1r	4gg]	2.cc	4a	4A
.	.	4ee	.	4a	4A
.	.	[2ff	.	4dd	4d
.	.	.	4dd	4dd	4d
=116	=116	=116	=116	=116	=116
1r	1r	4ff]	2.b	4g	4G
.	.	4dd#	.	4g	4G
.	.	[2ee	.	4cc	4c
.	.	.	4cc	4cc	4c
=117	=117	=117	=117	=117	=117
1r	1r	4ee]	4a	4f	4F
.	.	4dd	4a	4f	4F
.	.	4aa	4a	4f	4F
.	.	4cc	4a	4f	4F
=118	=118	=118	=118	=118	=118
1r	1r	4.b	4g	4f	4F
.	.	.	4g	4f	4F
.	.	16a	.	.	.
.	.	16b	.	.	.
.	.	4cc	4g	4e	4E
.	.	4gg	4g	4e	4E
=119	=119	=119	=119	=119	=119
1r	1r	1ff	4a	4d	4D
.	.	.	4a	4d	4D
.	.	.	4b	4g	4G
.	.	.	4b	4g	4G
=120	=120	=120	=120	=120	=120
1r	1r	2ee	4cc	4cc	4c
.	.	.	4cc	4cc	4c
.	.	8gg	8e	4cc	4c
.	.	8aa	8f	.	.
.	.	8gg	8e	4cc	4c
.	.	8aa	8f	.	.
=121	=121	=121	=121	=121	=121
1r	1r	4bb-	4g	4c	4C
.	.	4gg	4e	4c	4C
.	.	4ee	4e	4c	4C
.	.	4b-	4e	4c	4C
=122	=122	=122	=122	=122	=122
1r	1r	4a	4f	4f	4F
.	.	2aa	8cc	4f	4F
.	.	.	8b-	.	.
.	.	.	4a	4f	4F
.	.	[4aa	8g	4f	4F
.	.	.	8f	.	.
=123	=123	=123	=123	=123	=123
1r	1r	4aa]	4e	4c#	4C#
.	.	8gg	4e	4c#	4C#
.	.	8ff	.	.	.
.	.	4gg	4e	4c#	4C#
.	.	8ff	4A	4c#	4C#
.	.	8ee	.	.	.
=124	=124	=124	=124	=124	=124
1r	1r	4ff	4A	4d	4D
.	.	4d	2.r	4d	4D
.	.	8ff	.	4d	4D
.	.	8gg	.	.	.
.	.	8ff	.	4e	4E
.	.	8gg	.	.	.
=125	=125	=125	=125	=125	=125
1r	1r	4aa	4d	4f	4F
.	.	4ff	4d	4f	4F
.	.	4dd	4d	4f#	4F#
.	.	4cc	4d	4f#	4F#
=126	=126	=126	=126	=126	=126
1r	1r	4b	4d	4g	4G
.	.	2gg	8g	4g	4G
.	.	.	8a	.	.
.	.	.	8b	4g	4G
.	.	.	8cc	.	.
.	.	[4gg	8dd	4g	4G
.	.	.	8b	.	.
=127	=127	=127	=127	=127	=127
1r	1r	4gg]	4g	4B	4BB
.	.	8ff	4g	4B	4BB
.	.	8ee	.	.	.
.	.	4ff	4g	4B	4BB
.	.	8ee	4g	4B	4BB
.	.	8dd	.	.	.
=128	=128	=128	=128	=128	=128
1r	1r	2ee	4g	4c	4C
.	.	.	4g	4c	4C
.	.	2ccc	4c	4e	4E
.	.	.	4c	4e	4E
=129	=129	=129	=129	=129	=129
1r	1r	4gg#	4c	4f	4F
.	.	4aa	4c	4f	4F
.	.	[2aa	4c	4f	4F
.	.	.	4c#	4f	4F
=130	=130	=130	=130	=130	=130
1r	1r	4aa]	4d	4f	4F
.	.	4ff	4a	4f	4F
.	.	4dd	4a	4f#	4F#
.	.	4cc	4a	4f#	4F#
=131	=131	=131	=131	=131	=131
1r	1r	4b	4g	4g	4G
.	.	4gg	4b	4g	4G
.	.	4dd	4b	4g	4G
.	.	4ee	4cc	4g	4G
=132	=132	=132	=132	=132	=132
1r	1r	4dd	4b	4g	4G
.	.	4gg	4b	4g	4G
.	.	4dd	4b	4g	4G
.	.	4cc	4a	4g	4G
=133	=133	=133	=133	=133	=133
1r	1r	2b	2g	2g	2G
.	.	2r	2r	2r	2r
=134	=134	=134	=134	=134	=134
2cc	2cc	2cc	2cc	2cc	2c
2c	2c	4.c	4.c	4.c	4.C
.	.	8d	8d	8d	8D
=135	=135	=135	=135	=135	=135
2e	2e	4.e	4.e	4.e	4.E
.	.	8f	8f	8f	8F
2g	2g	4.g	4.g	4.g	4.G
.	.	16a	16a	16a	16A
.	.	16b	16b	16b	16B
=136	=136	=136	=136	=136	=136
2cc	2cc	2cc	2cc	2cc	2c
2r	2r	8cc	2r	2r	2r
.	.	8dd	.	.	.
.	.	8ee	.	.	.
.	.	8ff	.	.	.
=137	=137	=137	=137	=137	=137
2r	2r	4gg	4r	2r	2r
.	.	4cc	4e	.	.
2dd	2g	4b	4d	2g	2G
.	.	4ff	4b	.	.
=138	=138	=138	=138	=138	=138
2ee	2cc	2ee	2cc	2cc	2c
2c	2c	4.c	4.c	4.c	4.C
.	.	8d	8d	8d	8D
=139	=139	=139	=139	=139	=139
2e	2e	4.e	4.e	4.e	4.E
.	.	8f	8f	8f	8F
2g	2g	4.g	4.g	4.g	4.G
.	.	16a	16a	16a	16A
.	.	16b	16b	16b	16B
=140	=140	=140	=140	=140	=140
2cc	2cc	2cc	2cc	4cc	4c
.	.	.	.	4cc	4c
2gg	2ee	4.gg	4.ee	4cc	4c
.	.	.	.	4cc	4c
.	.	16ff	16dd	.	.
.	.	16gg	16ee	.	.
=141	=141	=141	=141	=141	=141
1aa	1ff	2aa	2ff	4cc	4c
.	.	.	.	4cc	4c
.	.	4.ccc	4.aa	4cc	4c
.	.	.	.	4cc	4c
.	.	8a	8f	.	.
=142	=142	=142	=142	=142	=142
2gg	2ee	2g	2e	4cc	4c
.	.	.	.	4cc	4c
2r	2r	4.gg	4.ee	4cc	4c
.	.	.	.	4cc	4c
.	.	8cc	8e	.	.
=143	=143	=143	=143	=143	=143
2r	2r	4.cc	4.e	4g	4G
.	.	.	.	4g	4G
.	.	16b	16d	.	.
.	.	16cc	16e	.	.
2dd	2g	4dd	4f	4g	4G
.	.	4f	4d	4g	4G
=144	=144	=144	=144	=144	=144
1ee	2cc	2e	2c	4c	4C
.	.	.	.	4c	4C
.	2r	4.ccc	2c	4a	4A
.	.	.	.	4a	4A
.	.	8ff	.	.	.
=145	=145	=145	=145	=145	=145
1r	1r	4.ff	2.B-	4g	4G
.	.	.	.	4g	4G
.	.	16ee	.	.	.
.	.	16ff	.	.	.
.	.	4gg	.	4c	4C
.	.	4b-	4e	4c	4C
=146	=146	=146	=146	=146	=146
1r	1r	4a	4f	2f	2F
.	.	8ff	8ff	.	.
.	.	8gg	8gg	.	.
.	.	4aa	4aa	4r	4r
.	.	4cc	4cc	4f#	4D
=147	=147	=147	=147	=147	=147
1r	1r	4b	4b	2g	2G
.	.	8bb	8bb	.	.
.	.	8ccc	8ccc	.	.
.	.	4ddd	4ddd	4r	4r
.	.	4ff	4ff	4b	4G
=148	=148	=148	=148	=148	=148
2.r	2.r	4ee	4ee	2cc	2c
.	.	8gg	8gg	.	.
.	.	8ee	8ee	.	.
.	.	4ff	4ff	4r	4r
4ff	4dd	8dd	8dd	4b	4G
.	.	8ff	8ff	.	.
=149	=149	=149	=149	=149	=149
2ee	2cc	4ee	4ee	2cc	2c
.	.	8gg	8gg	.	.
.	.	8ee	8ee	.	.
4r	4r	4ff	4ff	4r	4r
4ff	4dd	8dd	8dd	4b	4G
.	.	8ff	8ff	.	.
=150	=150	=150	=150	=150	=150
2ee	2cc	4ee	2ee	2cc	2c
.	.	8gg	.	.	.
.	.	8ee	.	.	.
2r	2r	4ff	[2ff	[2dd	2d
.	.	4a	.	.	.
=151	=151	=151	=151	=151	=151
1r	1r	4g	2ff]	2dd]	2B
.	.	8ff	.	.	.
.	.	8dd	.	.	.
.	.	4ee	[2ee	[2cc	2c
.	.	4g	.	.	.
=152	=152	=152	=152	=152	=152
1r	1r	4f	2ee]	2cc]	2A
.	.	8ee	.	.	.
.	.	8cc	.	.	.
.	.	4dd	[2dd	[2g	2B
.	.	4f	.	.	.
=153	=153	=153	=153	=153	=153
1r	1r	4e	4dd]	2g]	4c
.	.	4ccc	4cc	.	4E
.	.	4aa	4cc	4f	4F
.	.	4ff	4cc	4a	4A
=154	=154	=154	=154	=154	=154
2ee	2cc	16ee	2cc	2g	2G
.	.	16dd	.	.	.
.	.	4.cc	.	.	.
4.dd	4.g	2dd	2b	2G	2GG
8dd	8g	.	.	.	.
=155	=155	=155	=155	=155	=155
2cc	2e	2cc	2cc	2c	2C
2r	2r	4.gg	2r	2r	2r
.	.	8aa-	.	.	.
=156	=156	=156	=156	=156	=156
1r	1r	2gg	4r	4r	1r
.	.	.	4b	4g	.
.	.	2r	4cc	4a	.
.	.	.	4dd	4b	.
=157	=157	=157	=157	=157	=157
1r	1r	2r	2ee-	2cc	1r
.	.	4.gg	2r	2r	.
.	.	8aa-	.	.	.
=158	=158	=158	=158	=158	=158
1r	1r	2gg	4r	4r	1r
.	.	.	4b	4g	.
.	.	2r	4cc	4a	.
.	.	.	4dd	4b	.
=159	=159	=159	=159	=159	=159
1r	1r	4r	[1ee-	[1cc	4r
.	.	4ee-	.	.	4c
.	.	4ff	.	.	4d
.	.	4gg	.	.	4e-
=160	=160	=160	=160	=160	=160
1r	1r	[1aa-	4ee-]	4cc]	[1f
.	.	.	4cc	4a-	.
.	.	.	4dd	4b-	.
.	.	.	4ee-	4cc	.
=161	=161	=161	=161	=161	=161
1r	1r	4aa-]	[1dd	[1b-	4f]
.	.	4dd	.	.	4B-
.	.	4ee-	.	.	4c
.	.	4ff	.	.	4d
=162	=162	=162	=162	=162	=162
1r	1r	[1gg	4dd]	4b-]	[1e-
.	.	.	4b-	4g	.
.	.	.	4cc	4a-	.
.	.	.	4dd	4b-	.
=163	=163	=163	=163	=163	=163
1r	1r	4gg]	[1cc	[1a-	4e-]
.	.	4cc	.	.	4A-
.	.	4dd	.	.	4B-
.	.	4ee-	.	.	4c
=164	=164	=164	=164	=164	=164
1r	1r	[1ff	4cc]	4a-]	[1d
.	.	.	4a-	4f	.
.	.	.	4b	4g	.
.	.	.	4cc	4a-	.
=165	=165	=165	=165	=165	=165
1r	1r	4ff]	4b	[1g	4d]
.	.	4b	4b	.	4G
.	.	4cc	4cc	.	4A
.	.	4dd	4dd	.	4B
=166	=166	=166	=166	=166	=166
1r	1r	1ee-	[1ee-	1g]	4c
.	.	.	.	.	4e-
.	.	.	.	.	4c
.	.	.	.	.	4B-
=167	=167	=167	=167	=167	=167
1r	1r	2.ccc	2.ee-]	4a-	4A-
.	.	.	.	4g	4G
.	.	.	.	4f#	4F#
.	.	4ee-	4cc	4f#	4F#
=168	=168	=168	=168	=168	=168
1g	1g	4dd	8b	2g	4G
.	.	.	8g	.	.
.	.	4g	8g	.	4G
.	.	.	8g	.	.
.	.	2r	8g	2r	4D
.	.	.	8g	.	.
.	.	.	8g	.	4BB
.	.	.	8g	.	.
=169	=169	=169	=169	=169	=169
1dd	1g	1ff	8g	1b	4GG
.	.	.	8g	.	.
.	.	.	8g	.	4G
.	.	.	8g	.	.
.	.	.	8g	.	4D
.	.	.	8g	.	.
.	.	.	8g	.	4BB
.	.	.	8g	.	.
=170	=170	=170	=170	=170	=170
1ff	1dd	2.ddd	8g	2.b	4GG
.	.	.	8g	.	.
.	.	.	8g	.	4G
.	.	.	8g	.	.
.	.	.	8g	.	4D
.	.	.	8g	.	.
.	.	4ff	8g	4B	4BB
.	.	.	8g	.	.
=171	=171	=171	=171	=171	=171
2ee	2cc	8ee	2g	2c	2C
.	.	8gg	.	.	.
.	.	8gg	.	.	.
.	.	8gg	.	.	.
4r	4r	8gg	4r	4r	4r
.	.	8gg	.	.	.
4cc	4e	8gg	4cc	4e	4c
.	.	8gg	.	.	.
=172	=172	=172	=172	=172	=172
2dd	2g	8gg	4.b	4.d	2G
.	.	8gg	.	.	.
.	.	8gg	.	.	.
.	.	8gg	8cc	8c	.
4r	4r	8gg	4dd	4B	4r
.	.	8gg	.	.	.
4ff	4dd	8gg	4ff	4b	4G
.	.	8gg	.	.	.
=173	=173	=173	=173	=173	=173
2ee	2cc	8gg	4ee	4cc	2c
.	.	8gg	.	.	.
.	.	8gg	4cc	4e	.
.	.	8gg	.	.	.
4r	4r	8gg	4r	4r	4r
.	.	8gg	.	.	.
4cc	4e	8gg	4cc	4e	4c
.	.	8gg	.	.	.
=174	=174	=174	=174	=174	=174
2dd	2g	8gg	4.b	4.d	2G
.	.	8gg	.	.	.
.	.	8gg	.	.	.
.	.	8gg	8cc	8c	.
4r	4r	8gg	4dd	4B	4r
.	.	8gg	.	.	.
4ff	4dd	8gg	4ff	4b	4G
.	.	8gg	.	.	.
=175	=175	=175	=175	=175	=175
2ee	2cc	4gg	4ee	2cc	2c
.	.	4bb	4bb	.	.
2r	2r	4ccc	4ccc	4r	4r
.	.	4e	4e	4e	4E
=176	=176	=176	=176	=176	=176
1r	1r	4f	4f	2f	2F
.	.	4ff	4ff	.	.
.	.	4aa	4aa	4r	4r
.	.	4f#	4f#	4f#	4F#
=177	=177	=177	=177	=177	=177
2ee	2cc	4g	4g	2g	2G
.	.	4cc	4cc	.	.
2dd	2g	4G	4G	2G	2GG
.	.	4b	4b	.	.
=178	=178	=178	=178	=178	=178
2cc	2e	2c	2c	2c	2C
2r	2r	4.cc	4.e	[2ee	[2c
.	.	8dd	8f	.	.
=179	=179	=179	=179	=179	=179
2r	2r	4.ee	4.g	2ee]	2c]
.	.	8ff	8a	.	.
2dd	2g	4.gg	4.b	2dd	2B
.	.	16aa	16cc	.	.
.	.	16bb	16dd	.	.
=180	=180	=180	=180	=180	=180
2cc	2e	2ccc	2ee	4cc	4A
.	.	.	.	4c	4AA
2r	2r	4.a	4.c	[2cc	[2A
.	.	8b	8d	.	.
=181	=181	=181	=181	=181	=181
1r	1r	4.cc	4.e	2cc]	2A]
.	.	8dd	8f	.	.
.	.	4.ee	4.g	2b	2G
.	.	16ff	16a	.	.
.	.	16gg	16b	.	.
=182	=182	=182	=182	=182	=182
1r	1r	2aa	2cc	4a	4F
.	.	.	.	4A	4FF
.	.	4.f	4.A	[2a	[2F
.	.	8g	8B	.	.
=183	=183	=183	=183	=183	=183
1r	1r	4.a	4.c	2a]	2F]
.	.	8b	8d	.	.
.	.	4.cc	4.e	2g	2E
.	.	16dd	16f	.	.
.	.	16ee	16g	.	.
=184	=184	=184	=184	=184	=184
1r	1r	4ff	4a	2f	2D
.	.	2ff	2a	.	.
.	.	.	.	4.dd	4.d
.	.	4ff	4a	.	.
.	.	.	.	8cc	8c
=185	=185	=185	=185	=185	=185
1dd	1g	4ddd	4g	4.b	4.B
.	.	2ddd	2g	.	.
.	.	.	.	8a	8A
.	.	.	.	4.g	4.G
.	.	4ff	4g	.	.
.	.	.	.	16a	16A
.	.	.	.	16b	16B
=186	=186	=186	=186	=186	=186
2ee	2cc	4ee	4g	4cc	4c
.	.	8gg	8gg	4e	4E
.	.	8ee	8ee	.	.
2r	2r	8aa	8aa	2f	2F
.	.	8a	8a	.	.
.	.	8ff	8ff	.	.
.	.	8dd	8dd	.	.
=187	=187	=187	=187	=187	=187
2r	2r	4.cc	4.cc	4r	4r
.	.	.	.	4e	4E
.	.	8g	8g	.	.
2dd	2g	2dd	2dd	4f	4F
.	.	.	.	4g	4G
=188	=188	=188	=188	=188	=188
2cc	2e	4cc	4cc	2c	2C
.	.	4e	4c	.	.
2r	2r	4f	4d	2r	2r
.	.	4g	4e	.	.
=189	=189	=189	=189	=189	=189
1r	1r	4a	4f	1r	1r
.	.	4b	4g	.	.
.	.	4cc	4a	.	.
.	.	4dd	4b	.	.
=190	=190	=190	=190	=190	=190
1r	1r	4ee	4cc	2.r	2.r
.	.	4ff	4dd	.	.
.	.	4gg	4ee	.	.
.	.	4e	4e	4e	4E
=191	=191	=191	=191	=191	=191
2r	2r	2f	2f	2f	2F
2dd	2g	2g	2g	2g	2G
=192	=192	=192	=192	=192	=192
4cc	4e	2c	2c	4c	4C
4cc	4e	.	.	4cc	4c
4cc	4e	2c 2g 2ee 2cc	2ee 2g 2cc 2c	4g	4G
4cc	4e	.	.	4e	4E
=193	=193	=193	=193	=193	=193
2cc	2e	2c 2ee 2g 2cc	2ee 2cc 2g 2c	2c	2C
2r	2r	2r	2r	2r	2r
==	==	==	==	==	==
*-	*-	*-	*-	*-	*-
!!!RWG1: This file contains only pitch and duration data.
!!!RWG2: Transposing instruments are not transposed.
!!!RWG3: Spines may have incompatible meters.
!!!RWG4: Durations of rests and tied notes may be interpreted.
!!!RWG: Key is interpreted using the Humdrum key tool.
!!!AFT: stage1 
!!!END: 2000/12/13
!!format changes:
!!content changes:
!!public access: complete
!!!KEY: 3794282
!!!EMD: Converted from MuseData to Humdrum Dec 16, 2000, by Andreas Kornstaedt using muse2kern.
